src/assets/icon-linkedin.svg

<svg width="42" height="42" viewBox="0 0 42 42" fill="none" xmlns="http://www.w3.org/2000/svg">
<rect width="42" height="42" rx="21" fill="#FBFCFE"/>
<path d="M32 8H10C9.46957 8 8.96086 8.21071 8.58579 8.58579C8.21071 8.96086 8 9.46957 8 10V32C8 32.5304 8.21071 33.0391 8.58579 33.4142C8.96086 33.7893 9.46957 34 10 34H32C32.5304 34 33.0391 33.7893 33.4142 33.4142C33.7893 33.0391 34 32.5304 34 32V10C34 9.46957 33.7893 8.96086 33.4142 8.58579C33.0391 8.21071 32.5304 8 32 8ZM17 27C17 27.2652 16.8946 27.5196 16.7071 27.7071C16.5196 27.8946 16.2652 28 16 28C15.7348 28 15.4804 27.8946 15.2929 27.7071C15.1054 27.5196 15 27.2652 15 27V19C15 18.7348 15.1054 18.4804 15.2929 18.2929C15.4804 18.1054 15.7348 18 16 18C16.2652 18 16.5196 18.1054 16.7071 18.2929C16.8946 18.4804 17 18.7348 17 19V27ZM16 17C15.7033 17 15.4133 16.912 15.1666 16.7472C14.92 16.5824 14.7277 16.3481 14.6142 16.074C14.5006 15.7999 14.4709 15.4983 14.5288 15.2074C14.5867 14.9164 14.7296 14.6491 14.9393 14.4393C15.1491 14.2296 15.4164 14.0867 15.7074 14.0288C15.9983 13.9709 16.2999 14.0006 16.574 14.1142C16.8481 14.2277 17.0824 14.42 17.2472 14.6666C17.412 14.9133 17.5 15.2033 17.5 15.5C17.5 15.8978 17.342 16.2794 17.0607 16.5607C16.7794 16.842 16.3978 17 16 17ZM28 27C28 27.2652 27.8946 27.5196 27.7071 27.7071C27.5196 27.8946 27.2652 28 27 28C26.7348 28 26.4804 27.8946 26.2929 27.7071C26.1054 27.5196 26 27.2652 26 27V22.5C26 21.837 25.7366 21.2011 25.2678 20.7322C24.7989 20.2634 24.163 20 23.5 20C22.837 20 22.2011 20.2634 21.7322 20.7322C21.2634 21.2011 21 21.837 21 22.5V27C21 27.2652 20.8946 27.5196 20.7071 27.7071C20.5196 27.8946 20.2652 28 20 28C19.7348 28 19.4804 27.8946 19.2929 27.7071C19.1054 27.5196 19 27.2652 19 27V19C19.0012 18.7551 19.0923 18.5191 19.256 18.3369C19.4197 18.1546 19.6446 18.0388 19.888 18.0114C20.1314 17.9839 20.3764 18.0468 20.5765 18.188C20.7767 18.3292 20.918 18.539 20.9738 18.7775C21.6502 18.3186 22.4389 18.0526 23.2552 18.0081C24.0714 17.9637 24.8844 18.1424 25.6067 18.5251C26.329 18.9078 26.9335 19.48 27.3551 20.1803C27.7768 20.8806 27.9997 21.6825 28 22.5V27Z" fill="#134386"/>
</svg>

<svg width="42" height="42" fill="none" xmlns="http://www.w3.org/2000/svg"><rect width="42" height="42" rx="21" fill="#FBFCFE"/><path d="M32 8H10a2 2 0 0 0-2 2v22a2 2 0 0 0 2 2h22a2 2 0 0 0 2-2V10a2 2 0 0 0-2-2ZM17 27a1 1 0 0 1-2 0v-8a1 1 0 0 1 2 0v8Zm-1-10a1.5 1.5 0 1 1 0-3 1.5 1.5 0 0 1 0 3Zm12 10a1 1 0 0 1-2 0v-4.5a2.5 2.5 0 0 0-5 0V27a1 1 0 0 1-2 0v-8a1 1 0 0 1 1.974-.223A4.5 4.5 0 0 1 28 22.5V27Z" fill="#134386"/></svg>
